docs/styles/img/icons/igSocialNetwork.svg

<svg width="22" height="22" viewBox="0 0 22 22" fill="none" xmlns="http://www.w3.org/2000/svg">
<path fill-rule="evenodd" clip-rule="evenodd" d="M10.5804 0.299805C7.7292 0.299805 7.37137 0.312272 6.25154 0.363233C5.13389 0.414413 4.371 0.591356 3.70347 0.850975C3.01297 1.11912 2.42725 1.47782 1.84371 2.06158C1.25973 2.64512 0.90103 3.23085 0.632006 3.92112C0.371731 4.58887 0.19457 5.35198 0.144264 6.46919C0.0941778 7.58903 0.0810547 7.94707 0.0810547 10.7983C0.0810547 13.6495 0.0937404 14.0062 0.144483 15.1261C0.195882 16.2437 0.372825 17.0066 0.632225 17.6741C0.900592 18.3646 1.25929 18.9504 1.84305 19.5339C2.42637 20.1179 3.0121 20.4774 3.70216 20.7456C4.37012 21.0052 5.13323 21.1822 6.25066 21.2333C7.3705 21.2843 7.7281 21.2968 10.5791 21.2968C13.4305 21.2968 13.7873 21.2843 14.9071 21.2333C16.0247 21.1822 16.7885 21.0052 17.4565 20.7456C18.1468 20.4774 18.7316 20.1179 19.3149 19.5339C19.8989 18.9504 20.2576 18.3646 20.5266 17.6744C20.7847 17.0066 20.9619 16.2435 21.0144 15.1263C21.0647 14.0064 21.0778 13.6495 21.0778 10.7983C21.0778 7.94707 21.0647 7.58925 21.0144 6.46941C20.9619 5.35176 20.7847 4.58887 20.5266 3.92134C20.2576 3.23085 19.8989 2.64512 19.3149 2.06158C18.7309 1.4776 18.147 1.1189 17.4558 0.850975C16.7865 0.591356 16.0232 0.414413 14.9056 0.363233C13.7857 0.312272 13.4292 0.299805 10.5771 0.299805H10.5804ZM9.63754 2.19467C9.91706 2.19423 10.229 2.19467 10.5793 2.19467C13.3824 2.19467 13.7147 2.20473 14.8216 2.25504C15.8452 2.30184 16.4007 2.47288 16.7708 2.61658C17.2607 2.80686 17.61 3.03433 17.9773 3.40178C18.3447 3.76922 18.5722 4.11917 18.7629 4.6091C18.9066 4.97873 19.0779 5.53428 19.1244 6.55788C19.1747 7.66459 19.1857 7.99705 19.1857 10.7988C19.1857 13.6006 19.1747 13.9331 19.1244 15.0398C19.0776 16.0634 18.9066 16.6189 18.7629 16.9886C18.5726 17.4785 18.3447 17.8273 17.9773 18.1946C17.6098 18.562 17.261 18.7895 16.7708 18.9798C16.4012 19.1241 15.8452 19.2947 14.8216 19.3415C13.7149 19.3918 13.3824 19.4028 10.5793 19.4028C7.77603 19.4028 7.4438 19.3918 6.33708 19.3415C5.31348 19.2943 4.75794 19.1232 4.38765 18.9795C3.89772 18.7893 3.54777 18.5618 3.18032 18.1943C2.81288 17.8269 2.58541 17.4778 2.39469 16.9877C2.25099 16.618 2.07973 16.0625 2.03315 15.0389C1.98284 13.9322 1.97278 13.5997 1.97278 10.7962C1.97278 7.99267 1.98284 7.66197 2.03315 6.55525C2.07995 5.53165 2.25099 4.97611 2.39469 4.60604C2.58497 4.11611 2.81288 3.76616 3.18032 3.39871C3.54777 3.03127 3.89772 2.8038 4.38765 2.61308C4.75772 2.46872 5.31348 2.29812 6.33708 2.2511C7.30557 2.20736 7.68089 2.19423 9.63754 2.19205V2.19467ZM16.1826 3.94381C15.4871 3.94381 14.9228 4.50745 14.9228 5.20319C14.9228 5.89872 15.4871 6.46301 16.1826 6.46301C16.8781 6.46301 17.4424 5.89872 17.4424 5.20319C17.4424 4.50767 16.8781 3.94338 16.1826 3.94338V3.94381ZM10.5789 5.40487C7.60145 5.40487 5.18746 7.81887 5.18746 10.7963C5.18746 13.7737 7.60145 16.1866 10.5789 16.1866C13.5563 16.1866 15.9694 13.7737 15.9694 10.7963C15.9694 7.81887 13.5561 5.40487 10.5786 5.40487H10.5789ZM10.5777 7.3042C12.5104 7.3042 14.0773 8.87088 14.0773 10.8037C14.0773 12.7363 12.5104 14.3032 10.5777 14.3032C8.64487 14.3032 7.07815 12.7363 7.07815 10.8037C7.07815 8.87088 8.64487 7.3042 10.5777 7.3042Z" fill="white"/>
</svg>

<svg width="22" height="22" fill="none" xmlns="http://www.w3.org/2000/svg"><path fill-rule="evenodd" clip-rule="evenodd" d="M10.58.3C7.73.3 7.371.312 6.252.363 5.134.414 4.37.591 3.703.851a5.14 5.14 0 00-1.86 1.21 5.154 5.154 0 00-1.211 1.86C.372 4.59.195 5.352.144 6.47.094 7.59.081 7.947.081 10.8c0 2.85.013 3.207.063 4.327.052 1.118.229 1.88.488 2.548.269.69.627 1.276 1.211 1.86.583.584 1.17.943 1.86 1.212.667.26 1.43.436 2.548.487 1.12.051 1.477.064 4.328.064s3.208-.013 4.328-.064c1.118-.05 1.881-.228 2.55-.487a5.136 5.136 0 001.858-1.212 5.153 5.153 0 001.212-1.86c.258-.667.435-1.43.487-2.548.05-1.12.064-1.476.064-4.328 0-2.85-.013-3.209-.064-4.329-.052-1.117-.23-1.88-.487-2.548a5.152 5.152 0 00-1.212-1.86 5.13 5.13 0 00-1.86-1.21c-.668-.26-1.432-.437-2.55-.488C13.786.313 13.43.3 10.578.3h.003zm-.942 1.895h.941c2.803 0 3.136.01 4.243.06 1.023.047 1.579.218 1.949.362.49.19.839.417 1.206.785.368.367.595.717.786 1.207.144.37.315.925.361 1.949.05 1.107.062 1.439.062 4.24 0 2.803-.011 3.135-.062 4.242-.046 1.023-.217 1.579-.361 1.949-.19.49-.418.838-.786 1.206a3.248 3.248 0 01-1.206.785c-.37.144-.926.315-1.95.361-1.106.05-1.439.062-4.242.062s-3.135-.011-4.242-.061c-1.024-.048-1.58-.219-1.95-.362a3.25 3.25 0 01-1.207-.786 3.254 3.254 0 01-.785-1.206c-.144-.37-.315-.925-.362-1.95-.05-1.106-.06-1.438-.06-4.242 0-2.803.01-3.134.06-4.24.047-1.024.218-1.58.362-1.95.19-.49.418-.84.785-1.207a3.258 3.258 0 011.208-.786c.37-.144.925-.315 1.95-.362.968-.044 1.343-.057 3.3-.059v.003zm6.545 1.749a1.26 1.26 0 100 2.52 1.26 1.26 0 000-2.52zm-5.604 1.46a5.392 5.392 0 100 10.784 5.392 5.392 0 000-10.783zm-.001 1.9a3.5 3.5 0 110 7 3.5 3.5 0 010-7z" fill="#fff"/></svg>
